img/solution-new-spots.svg

<svg fill="none" height="32" viewBox="0 0 32 32" width="32" xmlns="http://www.w3.org/2000/svg"><path d="m15.3998 7.3999h-6.59996c-1.32548 0-2.4 1.07452-2.4 2.4v9.6004c0 1.3255 1.07453 2.4 2.40002 2.4l8.66034-.0001 4.5399 4.8v-4.7999h1.2001c1.3254-.0001 2.3999-1.0746 2.3999-2.4v-2.3998m-7.4427-5.7521 5.0912-5.09117 3.3941 3.39411-5.0912 5.09116h-3.3941z" stroke="#fff" stroke-linecap="round" stroke-linejoin="round" stroke-width="2"/></svg>

<svg width="32" height="32" viewBox="0 0 32 32" fill="none" xmlns="http://www.w3.org/2000/svg">
<path d="M15.3998 7.3999H8.79984C7.47436 7.3999 6.39984 8.47442 6.39984 9.7999V19.4003C6.39984 20.7258 7.47437 21.8003 8.79986 21.8003L17.4602 21.8002L22.0001 26.6002V21.8003L23.2002 21.8003C24.5256 21.8002 25.6001 20.7257 25.6001 19.4003V17.0005M18.1574 11.2484L23.2486 6.15723L26.6427 9.55134L21.5515 14.6425H18.1574V11.2484Z" stroke="white" stroke-width="2" stroke-linecap="round" stroke-linejoin="round"/>
</svg>
